X: 17
T:Slainte Righ Pilib
T:Health to King Phillip
M:3/4
L:1/8
S:Thomson's Original Irish Airs, 1814-1816
R:Air
K:Bb
"moderato"F4 =E2|F2 G2 B2|c4 B2|G4 c2|B4 GF|=E4 C2|C4 C2|C2 D2 =E2|
F4 =E2|F2 G2 B2|c4 G2|B2 c2 d2|e2 d2 c2|B2 G2 =E2|F6-|F6|
f4 =e2|f4 g2|f4 _e2|c4 d2|e4 e2|e2 c2 e2|B4 G2|=E4 C2|
F4 =E2|F2 G2 B2|c4 G2|B2 c2 d2|e2 d2 c2|B2 G2 =E2|F6-|F6||

